X:1
T:Title
%%score { ( 1 4 ) | ( 2 3 ) }
L:1/8
M:6/8
K:Ab
V:1 treble nm="Grand Piano"
V:4 treble 
V:2 bass 
V:3 bass 
V:1
 z3 z2[Q:1/4=81] [A,C]/[B,D]/ | [CE]>[CE][CE] [DF][DF][=DF] | GFG [CA]2 [CA] | A>GF A>GF | %4
 [=Ec]3- [Ec]2 [Ec]/[Ec]/ | c>cc cBA |[M:5/8] [GB][Ac][Bd] [EAc]2 |[M:1/8] [G,E] | %8
[M:3/4] [A,EA][A,EA] [FB][Ec] [EAc]>[DGB] |[M:5/8] [CEA]-[CEA]- [CEA]3 |[M:1/8] [A,CE] | %11
[M:3/4] [CA]>[CA] [CA][DA]- [DA]/[DG]/[DF] |[M:5/8] [DF][CE]- [CE]3 |[M:1/8] A/B/ | %14
[M:3/4] c>c cc- c/B/A | [Ac][GB]- [GB]3 c/d/ | e>e ee c[EB] | [FA][FA] [DF] [FA]2 F | %18
 E>E EA- A/G/[=DA] | cB- B3 c/d/ | e>e ee [Ec][EB] |[M:7/8] z2 [FB] z z z2 | %22
[M:3/4] [Ec]>[=D_c] =ce- e/A/c |[M:5/8] B[CA]- [CA]3 |] %24
V:2
 z3 z2 [A,,E,]/[A,,E,]/ | [A,,A,]>[A,,A,][A,,A,] [D,A,][D,A,][B,,B,] | %2
 [E,B,D][E,B,D][E,D] [A,,E,]2 [A,,A,] | [F,CF]>[F,B,F][F,A,] [F,CF]>[F,B,F][F,A,] | %4
 [C,G,]3- [C,G,]2 [C,B,]/[C,B,]/ | [A,E]>[A,E][A,E] [A,EA][A,DA][K:bass][A,C] | %6
[M:5/8] [E,E][E,E][E,E] A,2 |[M:1/8] E,/D,/ |[M:3/4] C,C, [D,A,][E,A,] E,>E, | %9
[M:5/8] A,,-A,,- A,,3 |[M:1/8] A,, | %11
[M:3/4] [A,,E,]>[A,,E,] [A,,E,][A,,F,]- [A,,F,]/[A,,F,]/[A,,A,] |[M:5/8] [A,,A,][A,,A,]- [A,,A,]3 | %13
[M:1/8][K:treble] [CE]/[DF]/ |[M:3/4] [A,EA]>[A,EA] [A,EA][A,EA]- [A,EA]/[A,DA]/[K:bass][A,C] | %15
 z2 z2 z[K:treble] .E | [A,CA]>[A,CA] [A,CA][A,CA][K:bass] [A,E][C,A,] | %17
 [D,D][D,D] [D,A,] [D,D]2 [D,A,D] | [E,A,C]>[E,A,C] [E,A,C][F,B,=D]- [F,B,D]/[F,B,D]/[B,,B,] | %19
 z2 z2 z [A,E] | [A,CE]>[A,CE] [A,CE][A,CE] [A,,A,][B,,G,] | %21
[M:7/8] [C,A,][C,A,].[D,A,] [C,G,]3 [B,,G,] | %22
[M:3/4] [A,,A,]>[A,,A,] [A,E][E,CE]- [E,CE]/[E,CE]/[E,A,E] |[M:5/8] [E,G,D][A,,E,]- [A,,E,]3 |] %24
V:3
 x6 | x6 | x6 | x6 | x6 | x5[K:bass] x |[M:5/8] x5 |[M:1/8] x |[M:3/4] x6 |[M:5/8] x5 |[M:1/8] x | %11
[M:3/4] x6 |[M:5/8] x5 |[M:1/8][K:treble] A, |[M:3/4] x5[K:bass] x | %15
 [E,E][E,E]- [E,E]3[K:treble] [A,A]/-[A,B,A]/ | x4[K:bass] x2 | x6 | x6 | %19
 [E,A,E][E,G,E]- [E,G,E]3 z/ B,/ | x6 |[M:7/8] x7 |[M:3/4] x6 |[M:5/8] x5 |] %24
V:4
 x6 | x6 | x6 | x6 | x6 | x6 |[M:5/8] x5 |[M:1/8] x |[M:3/4] x6 |[M:5/8] x5 |[M:1/8] x | %11
[M:3/4] x6 |[M:5/8] x5 |[M:1/8] x |[M:3/4] x6 | x6 | x6 | x6 | x6 | x6 | x6 | %21
[M:7/8] [EA][EA] z/ F,/ [=Ec]3 [_Ed] |[M:3/4] x6 |[M:5/8] x5 |] %24

